svg/black/aeur.svg

<?xml version="1.0" encoding="UTF-8"?>
<svg width="32px" height="32px" viewBox="0 0 32 32" version="1.1" xmlns="http://www.w3.org/2000/svg" xmlns:xlink="http://www.w3.org/1999/xlink">
    <!-- Generator: Sketch 53 (72520) - https://sketchapp.com -->
    <title>svg/black/aeur</title>
    <desc>Created with Sketch.</desc>
    <g id="black/aeur" stroke="none" stroke-width="1" fill="none" fill-rule="evenodd">
        <path d="M16,32 C7.163444,32 0,24.836556 0,16 C0,7.163444 7.163444,0 16,0 C24.836556,0 32,7.163444 32,16 C32,24.836556 24.836556,32 16,32 Z M15.9524873,18.9859718 C15.965997,18.9860485 15.9795157,18.986087 15.9930435,18.986087 C16.0104837,18.9860653 16.0279091,18.9859799 16.0453192,18.985831 C16.0469578,18.9901708 16.0480659,18.994775 16.0485653,18.9995651 C16.0485653,19.0193838 16.0366268,19.037251 16.0183168,19.0448352 C16.0000068,19.0524195 15.978931,19.0482273 15.9649171,19.0342134 C15.9522029,19.0214992 15.9475731,19.0029724 15.9524873,18.9859718 Z M9.93755811,15.4930435 C9.34130953,16.5224127 9,17.7178695 9,18.9930435 C9,22.8551947 12.1308922,25.986087 15.9930435,25.986087 C19.8532085,25.9812959 22.9812959,22.8532085 22.986087,18.9930435 C22.986087,17.7165569 22.6440744,16.5199516 22.0466867,15.4898652 C22.6427178,14.4613088 22.9845057,13.2670471 22.986087,11.9930435 C22.986087,8.13089221 19.8551947,5 15.9930435,5 C12.1308922,5 9,8.13089221 9,11.9930435 C9,13.2682174 9.34130953,14.4636742 9.93755811,15.4930435 Z M16.0485653,11.9995651 L16.048561,12.0002158 C16.0300722,12.000072 16.0115662,12 15.9930435,12 C15.9788748,12 15.9647161,12.0000421 15.9505672,12.0001263 C15.9504913,11.993627 15.9517081,11.9870594 15.9542952,11.9808136 C15.9618795,11.9625036 15.9797467,11.9505651 15.9995653,11.9505651 C16.0254282,11.9532616 16.0458688,11.9737022 16.0485653,11.9995651 Z" id="Combined-Shape" fill="#000000" fill-rule="nonzero"></path>
    </g>
</svg>

<svg width="32" height="32" viewBox="0 0 32 32" xmlns="http://www.w3.org/2000/svg"><path d="M16 32C7.163 32 0 24.837 0 16S7.163 0 16 0s16 7.163 16 16-7.163 16-16 16zm-.048-13.014a7.144 7.144 0 0 0 .093 0 .055.055 0 0 1 .004.014.049.049 0 1 1-.097-.014zm-6.014-3.493a6.993 6.993 0 0 0 6.055 10.493 7.002 7.002 0 0 0 6.993-6.993 6.96 6.96 0 0 0-.94-3.503 6.993 6.993 0 1 0-12.11.003zM16.048 12a7.138 7.138 0 0 0-.097 0 .049.049 0 0 1 .049-.05.055.055 0 0 1 .049.05z"/></svg>
